X:66
T: Nachtigall als Warnerin
N: Q0137A
O: Suedosteuropa, Rumaenien, Siebenbuergen, Muehlbach
R: Ballade, Allegorie; lyrisch (?)
M: none
L: 1/16
K: G
D2 | G3GG6A2 | _B3AG6
G2 | d2d2D2D2 | G4G4z2
d2 | d3c_B6d2 | c3_BA4z2
A2 | G3G_B6F2 | G4G4z2

@@@ Tune index: 1564
